symbolic/32x32/mimetypes/application-x-compress.svg

<svg xmlns="http://www.w3.org/2000/svg" width="32" height="32" version="1.1">
 <path style="opacity:0.2" d="M 6.375,3 C 5.61325,3 5,3.6244 5,4.4 V 29.6 C 5,30.37504 5.61325,31 6.375,31 h 19.25 C 26.3862,31 27,30.37504 27,29.6 V 12 L 20,10 18,3 Z"/>
 <path style="fill:#4caf50" d="M 6.375,2 C 5.61325,2 5,2.6244 5,3.4 V 28.6 C 5,29.37504 5.61325,30 6.375,30 h 19.25 C 26.3862,30 27,29.37504 27,28.6 V 11 L 20,9 18,2 Z"/>
 <rect style="opacity:0.2" width="6" height="13.3" x="9" y="2"/>
 <rect style="fill:#ffffff" width="2" height="2" x="12" y="10"/>
 <rect style="fill:#ffffff" width="2" height="2" x="10" y="12"/>
 <path style="fill:#4b4b4b" d="m 11.999999,12 c 2.25,0 2.25,2.8 3,2.8 v 3.5 c 0,0.3878 -0.3345,0.7 -0.75,0.7 h -4.5 c -0.4155,0 -0.75,-0.3122 -0.75,-0.7 v -3.5 c 0.75,0 0.75,-2.8 3,-2.8 z"/>
 <rect style="fill:#ffffff" width="2" height="2" x="12" y="2"/>
 <path style="opacity:0.2" d="m 11.80078,16 c -1.5512,0 -2.800781,1.249581 -2.800781,2.800781 v 5.398438 C 8.999999,25.750419 10.24958,27 11.80078,27 h 0.398438 c 1.5512,0 2.800781,-1.249581 2.800781,-2.800781 V 18.800781 C 14.999999,17.249581 13.750418,16 12.199218,16 Z m 0.199219,6 a 2,2 0 0 1 2,2 2,2 0 0 1 -2,2 2,2 0 0 1 -2,-2 2,2 0 0 1 2,-2 z"/>
 <path style="fill:#ffffff" d="m 11.80078,15 c -1.5512,0 -2.800781,1.249581 -2.800781,2.800781 v 5.398438 C 8.999999,24.750419 10.24958,26 11.80078,26 h 0.398438 c 1.5512,0 2.800781,-1.249581 2.800781,-2.800781 V 17.800781 C 14.999999,16.249581 13.750418,15 12.199218,15 Z m 0.199219,6 a 2,2 0 0 1 2,2 2,2 0 0 1 -2,2 2,2 0 0 1 -2,-2 2,2 0 0 1 2,-2 z"/>
 <path style="fill:#909090" d="m 11.984375,13.0001 a 1,0.82954037 0 0 0 -0.984276,0.840798 v 3.31783 a 1,0.82954037 0 1 0 1.9998,0 v -3.31783 A 1,0.82954037 0 0 0 11.984375,13.0001 Z"/>
 <rect style="fill:#ffffff" width="2" height="2" x="10" y="4"/>
 <rect style="fill:#ffffff" width="2" height="2" x="12" y="6"/>
 <rect style="fill:#ffffff" width="2" height="2" x="10" y="8"/>
 <path style="opacity:0.2" d="M 27,12 18,3 v 7.59375 C 18,11.373375 18.62775,12 19.40625,12 Z"/>
 <path style="fill:#88cc8b" d="M 27,11 18,2 V 9.59375 C 18,10.373375 18.62775,11 19.40625,11 Z"/>
 <path style="opacity:0.2;fill:#ffffff" d="M 6.375,2 C 5.61325,2 5,2.6247906 5,3.4003906 v 1 C 5,3.6247906 5.61325,3 6.375,3 H 18 V 2 Z"/>
</svg>

<svg xmlns="http://www.w3.org/2000/svg" width="32" height="32"><path style="opacity:.2" d="M6.375 3C5.613 3 5 3.624 5 4.4v25.2c0 .775.613 1.4 1.375 1.4h19.25c.761 0 1.375-.625 1.375-1.4V12l-7-2-2-7z"/><path style="fill:#4caf50" d="M6.375 2C5.613 2 5 2.624 5 3.4v25.2c0 .775.613 1.4 1.375 1.4h19.25c.761 0 1.375-.625 1.375-1.4V11l-7-2-2-7z"/><path style="opacity:.2" d="M9 2h6v13.3H9z"/><path style="fill:#fff" d="M12 10h2v2h-2zM10 12h2v2h-2z"/><path style="fill:#4b4b4b" d="M12 12c2.25 0 2.25 2.8 3 2.8v3.5c0 .388-.335.7-.75.7h-4.5c-.416 0-.75-.312-.75-.7v-3.5c.75 0 .75-2.8 3-2.8z"/><path style="fill:#fff" d="M12 2h2v2h-2z"/><path style="opacity:.2" d="M11.8 16C10.25 16 9 17.25 9 18.8v5.4c0 1.55 1.25 2.8 2.8 2.8h.4c1.55 0 2.8-1.25 2.8-2.8v-5.4c0-1.55-1.25-2.8-2.8-2.8zm.2 6a2 2 0 0 1 2 2 2 2 0 0 1-2 2 2 2 0 0 1-2-2 2 2 0 0 1 2-2z"/><path style="fill:#fff" d="M11.8 15C10.25 15 9 16.25 9 17.8v5.4c0 1.55 1.25 2.8 2.8 2.8h.4c1.55 0 2.8-1.25 2.8-2.8v-5.4c0-1.55-1.25-2.8-2.8-2.8zm.2 6a2 2 0 0 1 2 2 2 2 0 0 1-2 2 2 2 0 0 1-2-2 2 2 0 0 1 2-2z"/><path style="fill:#909090" d="M11.984 13a1 .83 0 0 0-.984.84v3.319a1 .83 0 1 0 2 0V13.84a1 .83 0 0 0-1.016-.84z"/><path style="fill:#fff" d="M10 4h2v2h-2zM12 6h2v2h-2zM10 8h2v2h-2z"/><path style="opacity:.2" d="m27 12-9-9v7.594c0 .78.628 1.406 1.406 1.406z"/><path style="fill:#88cc8b" d="m27 11-9-9v7.594c0 .78.628 1.406 1.406 1.406z"/><path style="opacity:.2;fill:#fff" d="M6.375 2C5.613 2 5 2.625 5 3.4v1C5 3.625 5.613 3 6.375 3H18V2z"/></svg>
